X:2053
T:She bosun dy row ayns Dover s'thie 
S:Traditional 
C:John Radcliffe, The Howe
O:Isle of Man
Z:Clague collection
B:Kiaull Vannin #53 
M:2/4 
L:1/8 
Q:160 
K:D 
B|F2 B^A|B2 Bc|d2 ed|c2 ce|d2 cc|B2 FF|^A2 BB|F2 de| 
f2 (g!3!fe)|f2 fe|d2 dB|c2 F^A|B2 ag|f2 fe|{e}B2 cc|B3|| 

